X: 9902
T: Desert Road, The
R: three-two
M: 3/2
K: Adorian
ABdB A2BG A2Bd|e2ag edBA G2eG|ABdB A2BG A2Bd|e2ag edBG A2AG|
ABdB A2BG A2Bd|e2ag edBA G2eG|A2BG A2Bd edBA|GABd e2ag edBG|A4||
|:ageg a2ba age2|aged ABed GAB2|ageg a2ba age2|aged G2Bd edB2:|

